assets/icons/filter.svg

<svg width="24" height="24" viewBox="0 0 24 24" fill="none" xmlns="http://www.w3.org/2000/svg">
<path d="M11.1439 17.8829H4.67139" stroke="#BEC4D0" stroke-width="1.5" stroke-linecap="round" stroke-linejoin="round"/>
<path fill-rule="evenodd" clip-rule="evenodd" d="M17.9269 20.6057C19.9678 20.6057 20.6487 19.9257 20.6487 17.8839C20.6487 15.8421 19.9678 15.1621 17.9269 15.1621C15.886 15.1621 15.2051 15.8421 15.2051 17.8839C15.2051 19.9257 15.886 20.6057 17.9269 20.6057Z" stroke="#BEC4D0" stroke-width="1.5" stroke-linecap="round" stroke-linejoin="round"/>
<path d="M14.1768 7.39463H20.6484" stroke="#BEC4D0" stroke-width="1.5" stroke-linecap="round" stroke-linejoin="round"/>
<path fill-rule="evenodd" clip-rule="evenodd" d="M7.39358 4.67188C5.35179 4.67188 4.6709 5.35277 4.6709 7.39366C4.6709 9.43545 5.35179 10.1155 7.39358 10.1155C9.43448 10.1155 10.1154 9.43545 10.1154 7.39366C10.1154 5.35277 9.43448 4.67188 7.39358 4.67188Z" stroke="#BEC4D0" stroke-width="1.5" stroke-linecap="round" stroke-linejoin="round"/>
</svg>

<svg width="24" height="24" fill="none" xmlns="http://www.w3.org/2000/svg"><path d="M11.144 17.883H4.67" stroke="#BEC4D0" stroke-width="1.5" stroke-linecap="round" stroke-linejoin="round"/><path clip-rule="evenodd" d="M17.927 20.606c2.04 0 2.722-.68 2.722-2.722s-.681-2.722-2.722-2.722-2.722.68-2.722 2.722.681 2.722 2.722 2.722z" stroke="#BEC4D0" stroke-width="1.5" stroke-linecap="round" stroke-linejoin="round"/><path d="M14.177 7.395h6.471" stroke="#BEC4D0" stroke-width="1.5" stroke-linecap="round" stroke-linejoin="round"/><path clip-rule="evenodd" d="M7.394 4.672c-2.042 0-2.723.68-2.723 2.722 0 2.041.68 2.722 2.723 2.722 2.04 0 2.721-.68 2.721-2.722 0-2.041-.68-2.722-2.721-2.722z" stroke="#BEC4D0" stroke-width="1.5" stroke-linecap="round" stroke-linejoin="round"/></svg>
